!!!COM: Bach, Johann Sebastian
!!!CDT: 1685/02/21/-1750/07/28/
!!!OTL@@DE:	Mit Fried und Freud ich fahr dahin
!!!SCT: BWV 382
!!!PC#:	49
!!!AGN: chorale
**harm	**kern	**kern	**kern	**kern
*	*ICvox	*ICvox	*ICvox	*ICvox
*	*Ibass	*Itenor	*Ialto	*Isoprn
*	*I"Bass	*I"Tenor	*I"Alto	*I"Soprano
*	*	*oclefC4	*oclefC3	*oclefC1
*	*clefF4	*clefGv2	*clefG2	*clefG2
*k[]	*k[]	*k[]	*k[]	*k[]
*d:dor	*d:dor	*d:dor	*d:dor	*d:dor
*M4/4	*M4/4	*M4/4	*M4/4	*M4/4
*met(c)	*met(c)	*met(c)	*met(c)	*met(c)
**MM100	*MM100	*MM100	*MM100	*MM100
i	4D	4F	4A	4d
=1	=1	=1	=1	=1
a:iv6	4F	4A	4d	4a
iv6	4F	4d	4f	4a
v	4E	4B	4e	4g
IV2	8CL	8AL	8f#L	8ddL
viio6	8BBJ	8BJ	8g#J	8ddJ
=2	=2	=2	=2	=2
i	8AAL	8cL	8aL	8ccL
i6	8CJ	8eJ	8aJ	8ccJ
ii%65	8DL	8fnXL	8aL	8bL
V	8EJ	8eJ	8g#J	8bJ
i;	4AA;	4c;	4e;	4a;
i	4A	4e	4a	4cc
=3	=3	=3	=3	=3
ii%65	8DL	8fL	8aL	8bL
V7	8EJ	8dJ	8g#J	8bJ
VI	4F	4c	4a	4a
ii%65	4D	4A	4f	4b
V7	4E	4G#	4d	4b
=4	=4	=4	=4	=4
i;	2.AA;	2.A;	2.c;	2.a;
C:V	8GnXL	8dL	8gnXL	8bL
V2	8FJ	8dJ	8gJ	8bJ
=5	=5	=5	=5	=5
I6	4E	4e	4g	4cc
V	8GL	8dL	8gL	8bL
V2	8FJ	8dJ	8gJ	8bJ
I6	4E	4c	4g	4cc
IV	8FL	8cL	8fL	8aL
ii	8DJ	8d	8fJ	8aJ
=6	=6	=6	=6	=6
d:viio2	4B-	4c#	4e	4g
V7	4A	4G	4c#	4e
i;	4D;	4F;	4A;	4d;
V6	4C#X	4A	4e	4a
=7	=7	=7	=7	=7
V65	8C#L	8GL	8eL	8aL
III+6	8AA	8FJ	8c#J	8aJ
IV65	8BBL	8FL	8dL	8gL
viio	8C#J	8EJ	8eJ	8gJ
i	4D	4F	4A	4f
VI6	4D	4F	4B-	4d
=8	=8	=8	=8	=8
III;	2F;	2F;	2A;	2c;
V6	4C#	4A	4e	4a
i	4D	4A	4d	4f
=9	=9	=9	=9	=9
V6/III	4E	4G	4c	4cc
III	4F	4c	4c	4a
iio6	8GL	8eL	8eL	8gL
i64	8AJ	8fJ	8dJ	8fJ
viio2	4B-	4e	4c#	4g
=10	=10	=10	=10	=10
V;	4A;	4c#;	4e;	4a;
V65	4C#X	4A	4e	4g
i	4D	4A	4d	4f
viio7/V	4GG#	4F	4BnX	4d
=11	=11	=11	=11	=11
v	4AA	4E	4A	4c
III+6	4AA	4A	4c#	4f
V6	8C#L	8AL	8eL	8eL
i	8DJ	8AJ	8fJ	8dJ
V7	4AA	4A	4g	4c#
=12	=12	=12	=12	=12
iv6	2D	2B-	2g	2d
I;	2D;	2A;	2f#;	2d;
==	==	==	==	==
*-	*-	*-	*-	*-
!!!YOR1: 371 vierstimmige Choralges&auml;nge von Johann Sebastian Bach, 
!!!YOR2: 4th ed. by Alfred D&ouml;rffel (Leipzig: Breitkopf und H&auml;rtel, 
!!!YOR2: c.1875). 178 pp. Plate "V.A.10".  reprint: J.S. Bach, 371 Four-Part 
!!!YOR4: Chorales (New York: Associated Music Publishers, Inc., c.1940).
!!!SMS: B&H, 4th ed, Alfred D&ouml;rffel, c.1875, plate V.A.10
!!!EED:  Craig Stuart Sapp
!!!EEV:  2009/05/22
